libs/ui/packages/crypto-icons/src/svg/currency_blast.svg

<svg width="24" height="24" stroke-miterlimit="10" version="1.1" viewBox="0 0 24 24" xml:space="preserve" xmlns="http://www.w3.org/2000/svg" xmlns:xlink="http://www.w3.org/1999/xlink">
<path d="M12 4.1875C7.68376 4.1875 4.1875 7.68376 4.1875 12C4.1875 16.3162 7.68376 19.8125 12 19.8125C16.3162 19.8125 19.8125 16.3162 19.8125 12C19.8125 7.68376 16.3162 4.1875 12 4.1875ZM8.4375 8.59375L16.2812 8.59375C16.3411 8.59375 16.3351 8.60506 16.375 8.625L17.3125 9.4375C17.3524 9.45744 17.3637 9.53394 17.3438 9.59375L16.6562 11.4062C16.6563 11.4461 16.6336 11.4488 16.5938 11.4688L15.4688 12.0312C15.389 12.0711 15.3777 12.1902 15.4375 12.25L16.1562 13C16.1961 13.0199 16.2387 13.0851 16.2188 13.125L15.5938 14.9375C15.5738 14.9774 15.5399 15.0113 15.5 15.0312L13.9375 15.7812C13.9176 15.8012 13.8949 15.8125 13.875 15.8125L7.5625 15.8125C7.46282 15.8125 7.36638 15.7247 7.40625 15.625L8.96875 10.3125C9.00862 10.2328 9.10775 10.2101 9.1875 10.25L10.1875 10.8125C10.2274 10.8324 10.2699 10.9089 10.25 10.9688L9.3125 14.3438C9.29256 14.4235 9.33781 14.5 9.4375 14.5L14.1875 14.5C14.2473 14.5 14.2926 14.4661 14.3125 14.4062L14.8125 12.875C14.8324 12.7753 14.7559 12.6875 14.6562 12.6875L11.5 12.6875C11.4003 12.6875 11.3351 12.5684 11.375 12.4688L11.6875 11.5938C11.7074 11.5339 11.7839 11.5 11.8438 11.5L15.125 11.5C15.1848 11.5 15.2301 11.4661 15.25 11.4062L15.6562 10.1875C15.6762 10.0878 15.6309 10 15.5312 10L7.125 10C6.98544 10 6.93156 9.7985 7.03125 9.71875L8.34375 8.625C8.38362 8.60506 8.41756 8.59375 8.4375 8.59375Z" fill="#000000" fill-rule="nonzero" opacity="1" stroke="none"/>
</svg>

<svg xmlns="http://www.w3.org/2000/svg" xml:space="preserve" width="24" height="24" viewBox="0 0 24 24" stroke-miterlimit="10"><path d="M12 4.188A7.81 7.81 0 0 0 4.188 12 7.81 7.81 0 0 0 12 19.813 7.81 7.81 0 0 0 19.813 12 7.81 7.81 0 0 0 12 4.188M8.438 8.593h7.843c.06 0 .054.011.094.031l.938.813c.04.02.05.096.03.156l-.687 1.812c0 .04-.022.043-.062.063l-1.125.562c-.08.04-.091.16-.031.219l.718.75c.04.02.083.085.063.125l-.625 1.813a.2.2 0 0 1-.094.093l-1.562.75q-.031.03-.063.031H7.563c-.1 0-.197-.087-.157-.187l1.563-5.312c.04-.08.139-.103.219-.063l1 .563c.04.02.082.096.062.156l-.937 3.375c-.02.08.025.156.124.156h4.75c.06 0 .106-.034.126-.094l.5-1.531a.157.157 0 0 0-.157-.187H11.5c-.1 0-.165-.12-.125-.22l.313-.874c.02-.06.096-.094.156-.094h3.281c.06 0 .105-.034.125-.094l.406-1.219c.02-.1-.025-.187-.125-.187H7.125c-.14 0-.193-.201-.094-.281l1.313-1.094a.3.3 0 0 1 .094-.031"/></svg>
